teeny/solid/align-text-justify.svg

<svg viewBox="0 0 15 15" xmlns="http://www.w3.org/2000/svg"><path fill-rule="evenodd" d="M15 4H0V3h15v1Zm0 4H0V7h15v1Zm0 4H0v-1h15v1Z"/></svg>

<svg width="15" height="15" viewBox="0 0 15 15" fill="none" xmlns="http://www.w3.org/2000/svg">
<path fill-rule="evenodd" clip-rule="evenodd" d="M15 4H0V3H15V4ZM15 8H0V7H15V8ZM15 12H0V11H15V12Z" fill="black"/>
</svg>
